!!!!SEGMENT: Mou2003-Ave_Maria_gratia_plena.krn
!!!id: Mou2003
!!!SCT: Sherr (1989)
!!!voices: 5
!!!COM: Jean Mouton
!!!OTL: Ave Maria gratia plena
**kern	**kern	**kern	**kern	**kern
*part5	*part4	*part3	*part2	*part1
*staff5	*staff4	*staff3	*staff2	*staff1
*I"Bassus	*I"Tenor II	*I"Tenor I	*I"Altus	*I"Superius
*I'B	*I'T. II	*I'T. I	*I'A	*I'S
*clefF4	*clefGv2	*clefGv2	*clefG2	*clefG2
*k[b-]	*k[b-]	*k[b-]	*k[b-]	*k[b-]
*F:	*F:	*F:	*F:	*F:
*M2/1	*M2/1	*M2/1	*M2/1	*M2/1
*met(C|)	*met(C|)	*met(C|)	*met(C|)	*met(C|)
!!section: Prima pars: Ave Maria gratia plena
!!!OMD: Prima pars: Ave Maria gratia plena
=1	=1	=1	=1	=1
0FF	0C	0F	0r	0r
=2	=2	=2	=2	=2
1BB-y	1D	1F	0r	0r
1AA	1C	1F	.	.
=3	=3	=3	=3	=3
0GG	1D	0G	0r	0r
.	1E	.	.	.
=4	=4	=4	=4	=4
[0FF	0F	1.A	0r	0r
.	.	2F	.	.
=5	=5	=5	=5	=5
0FF]	1r	0F	0f	1r
.	1F	.	.	1f
=6	=6	=6	=6	=6
0r	1B-y	0r	1d	1f
.	1A	.	1c	1f
=7	=7	=7	=7	=7
0r	0G	0r	1d	0g
.	.	.	1e	.
=8	=8	=8	=8	=8
0r	0F	0r	[0f	[0a
=9	=9	=9	=9	=9
1r	1r	0c	0f]	0a]
[1F	[1A	.	.	.
=10	=10	=10	=10	=10
1F]	1A]	1c	0r	0r
1F	1A	1d	.	.
=11	=11	=11	=11	=11
1G	1B-y	1.e	0r	0r
[1A	[1c	.	.	.
.	.	4d	.	.
.	.	4c	.	.
=12	=12	=12	=12	=12
2A]	2c]	0c	0r	1r
4G	4B-y	.	.	.
4F	4A	.	.	.
[1F	[1A	.	.	[1cc
=13	=13	=13	=13	=13
1F]	1A]	0r	0f	2cc]
.	.	.	.	2b-y
1r	1F	.	.	2.a
.	.	.	.	4g
=14	=14	=14	=14	=14
0r	1B-y	0r	1d	2.f
.	.	.	.	4e
.	1A	.	1c	1f
=15	=15	=15	=15	=15
0r	0G	0r	1d	2g
.	.	.	.	1b-y
.	.	.	1e	.
.	.	.	.	4a
.	.	.	.	4g
=16	=16	=16	=16	=16
0r	0F	1r	1.f	[0a
.	.	[1c	.	.
.	.	.	2e	.
=17	=17	=17	=17	=17
1r	0F	2c]	1d	0a]
.	.	2B-y	.	.
1FF	.	2A	1c	.
.	.	2G	.	.
=18	=18	=18	=18	=18
1BB-y	1D	2.F	1B-y	1r
.	.	4E	.	.
1AA	1C	1F	[1c	1a
=19	=19	=19	=19	=19
0GG	1.D	1G	2c]	0b-y
.	.	.	4B-y	.
.	.	.	4A	.
.	.	1G	1B-y	.
.	2E	.	.	.
=20	=20	=20	=20	=20
[0FF	[0F	[0A	[0c	[0a
=21	=21	=21	=21	=21
0FF;]	0F;]	0A;]	0c;]	0a;]
=22	=22	=22	=22	=22
0r	0c	0r	0r	0r
=23	=23	=23	=23	=23
0r	1d	0r	0r	0r
.	[1c	.	.	.
=24	=24	=24	=24	=24
0r	2c]	0c	0r	0r
.	2B-y	.	.	.
.	2A	.	.	.
.	4G	.	.	.
.	4F	.	.	.
=25	=25	=25	=25	=25
1r	1B-y	1d	0r	0r
[1C	2A	[1c	.	.
.	2G	.	.	.
=26	=26	=26	=26	=26
1C]	2A	2c]	0r	0r
.	2G	2B-y	.	.
1D	1F	2A	.	.
.	.	4G	.	.
.	.	4F	.	.
=27	=27	=27	=27	=27
1.C	1.E	0G	0r	0r
2BB-y	2D	.	.	.
=28	=28	=28	=28	=28
2AA	2E	1A	0r	0r
2FF	2F	.	.	.
[1GG	2D	2.B-y	.	.
.	[2G	.	.	.
.	.	4A	.	.
=29	=29	=29	=29	=29
1GG]	4G]	4B-y	0r	1r
.	4F	4A	.	.
.	4E	4G	.	.
.	4D	4F	.	.
2.AA	1C	2E	.	[1cc
.	.	[2F	.	.
4BB-y	.	.	.	.
=30	=30	=30	=30	=30
2C	0r	4F]	0r	1cc]
.	.	4E	.	.
2AA	.	1A	.	.
1BB-y	.	.	.	1dd
.	.	2G	.	.
=31	=31	=31	=31	=31
0AA	0c	0A	1r	1.cc
.	.	.	1e	.
.	.	.	.	2b-y
=32	=32	=32	=32	=32
0r	1d	0r	1f	2a
.	.	.	.	4g
.	.	.	.	4f
.	[1c	.	[1e	[1g
=33	=33	=33	=33	=33
0r	2c]	0r	2e]	1g]
.	2B-y	.	2d	.
.	2A	.	2e	1a
.	4G	.	2f	.
.	4F	.	.	.
=34	=34	=34	=34	=34
0r	0G	0r	2d	2.b-y
.	.	.	2.g	.
.	.	.	.	4a
.	.	.	.	4b-y
.	.	.	4f	4a
.	.	.	4e	4g
.	.	.	4d	4f
=35	=35	=35	=35	=35
0r	2.A	0r	1c	2e
.	.	.	.	2.f
.	4B-y	.	.	.
.	2c	.	1r	.
.	.	.	.	4e
.	2d	.	.	[2a
=36	=36	=36	=36	=36
0r	1B-y	1r	1d	2a]
.	.	.	.	2g
.	[1A	[1c	1e	1a
=37	=37	=37	=37	=37
0F	1A]	1c]	1.f	1a
.	1r	1d	.	1r
.	.	.	2e	.
=38	=38	=38	=38	=38
1G	0r	1B-y	2d	0r
.	.	.	2.g	.
1E	.	[1c	.	.
.	.	.	4f	.
.	.	.	4e	.
.	.	.	4d	.
=39	=39	=39	=39	=39
1F	0c	2c]	1c	1r
.	.	2B-y	.	.
1F	.	2.A	1r	[1f
.	.	4G	.	.
=40	=40	=40	=40	=40
1BB-y	1d	1B-y	2r	1f]
.	.	.	1f	.
1r	1B-y	1G	.	1g
.	.	.	2e	.
=41	=41	=41	=41	=41
1r	1.c	1F	1f	1a
[1C	.	1r	[1e	1g
.	4B-y	.	.	.
.	4A	.	.	.
=42	=42	=42	=42	=42
1C]	2G	1r	1e]	0r
.	2.A	.	.	.
1D	.	2r	1r	.
.	4G	.	.	.
.	4F	[2d	.	.
.	4E	.	.	.
=43	=43	=43	=43	=43
1BB-y	1D	4d]	0r	0r
.	.	4c	.	.
.	.	4B-y	.	.
.	.	4A	.	.
1C	2r	2G	.	.
.	[2A	[2c	.	.
=44	=44	=44	=44	=44
0D	4A]	2c]	0r	0r
.	4G	.	.	.
.	1F	4Bni	.	.
.	.	4A	.	.
.	.	1Bni	.	.
.	4E	.	.	.
.	4D	.	.	.
=45	=45	=45	=45	=45
0C	0E	0c	1.g	0r
.	.	.	2e	.
=46	=46	=46	=46	=46
0r	0r	0r	2f	1.cc
.	.	.	4e	.
.	.	.	4d	.
.	.	.	2c	.
.	.	.	[2d	2a
=47	=47	=47	=47	=47
0r	0r	0r	2d]	2b-y
.	.	.	2e	4a
.	.	.	.	4g
.	.	.	2d	2.f
.	.	.	[2f	.
.	.	.	.	4g
=48	=48	=48	=48	=48
1r	0r	0r	4f]	2a
.	.	.	4e	.
.	.	.	2.d	2.b-y
[1G	.	.	.	.
.	.	.	4c	4a
.	.	.	4B-y	4g
.	.	.	4A	4f
=49	=49	=49	=49	=49
2G]	1r	0r	1B-y	1g
2E	.	.	.	.
2F	[1c	.	[1A	1a
4E	.	.	.	.
4D	.	.	.	.
=50	=50	=50	=50	=50
2C	2c]	0r	1A]	0r
1D	2A	.	.	.
.	2B-y	.	1r	.
2E	4A	.	.	.
.	4G	.	.	.
=51	=51	=51	=51	=51
2D	2.F	0r	0r	0r
2.F	.	.	.	.
.	4G	.	.	.
.	2A	.	.	.
4E	.	.	.	.
[2D	[2B-y	.	.	.
=52	=52	=52	=52	=52
2D]	4B-]	0r	0r	0r
.	4A	.	.	.
2C	1A	.	.	.
2.BB-y	.	.	.	.
.	2G	.	.	.
8AAL	.	.	.	.
8GGJ	.	.	.	.
=53	=53	=53	=53	=53
[0FF	[0A	1.F	2.f	1f
.	.	.	4e	.
.	.	.	2d	[1a
.	.	2E	2c	.
=54	=54	=54	=54	=54
0FF]	0A]	1D	2f	2a]
.	.	.	2g	2b-y
.	.	2C	1a	1cc
.	.	[2F	.	.
=55	=55	=55	=55	=55
[0BB-y	1.B-y	4F]	1f	1r
.	.	4E	.	.
.	.	4D	.	.
.	.	4C	.	.
.	.	1BB-y	[1d	[1f
.	2A	.	.	.
=56	=56	=56	=56	=56
0BB-]	1G	1.B-y	2d]	2f]
.	.	.	2e	2e
.	1F	.	1f	1d
.	.	2A	.	.
=57	=57	=57	=57	=57
0C	1r	2.G	1e	1c
.	.	4F	.	.
.	[1G	1E	1c	1cc
=58	=58	=58	=58	=58
2.GG	2G]	2D	1.d	1.b-y
.	4F	1G	.	.
4AA	4E	.	.	.
2BB-y	2D	.	.	.
2C	[2G	2E	2e	4a
.	.	.	.	4g
=59	=59	=59	=59	=59
2FF	4G]	2D	1f	1a
.	4F	.	.	.
2AA	1F	1C	.	.
1GG	.	.	1g	1b-y
.	2E	2BB-y	.	.
=60	=60	=60	=60	=60
[0FF	1F	0C	0a	0a
.	2.F	.	.	.
.	4G	.	.	.
=61	=61	=61	=61	=61
0FF]	4A	0r	0r	0r
.	4B-y	.	.	.
.	1c	.	.	.
.	2B-y	.	.	.
=62	=62	=62	=62	=62
2.F	2.A	0c	0r	0r
4G	4G	.	.	.
4A	1F	.	.	.
4B-y	.	.	.	.
[2c	.	.	.	.
=63	=63	=63	=63	=63
2c]	1r	1d	0r	0r
2B-y	.	.	.	.
2.A	2.F	[1c	.	.
4G	4G	.	.	.
=64	=64	=64	=64	=64
2F	4A	1c]	0r	0r
.	4B-y	.	.	.
2E	1c	.	.	.
1D	.	1F	.	.
.	2B-y	.	.	.
=65	=65	=65	=65	=65
2.C	1c	1G	0r	0r
4D	.	.	.	.
4E	1C	1G	.	.
4F	.	.	.	.
[2G	.	.	.	.
=66	=66	=66	=66	=66
2G]	1r	1A	0r	0r
2F	.	.	.	.
2.E	2.C	[1G	.	.
4D	4D	.	.	.
=67	=67	=67	=67	=67
2C	4E	1G]	0r	0r
.	4F	.	.	.
2BB-y	1G	.	.	.
1AA	.	1A	.	.
.	2F	.	.	.
=68	=68	=68	=68	=68
2.GG	1.G	0B-y	0r	0r
4AA	.	.	.	.
4BB-y	.	.	.	.
4C	.	.	.	.
[2D	[2F	.	.	.
=69	=69	=69	=69	=69
2D]	2F]	1A	0r	0r
2C	2E	.	.	.
2BB-y	2D	1G	.	.
[2C	[2E	.	.	.
=70	=70	=70	=70	=70
2C]	4E]	[0A	0r	0r
.	4C	.	.	.
2D	1F	.	.	.
1C	.	.	.	.
.	2E	.	.	.
=71	=71	=71	=71	=71
0FF	0F	0A]	2.f	0cc
.	.	.	4g	.
.	.	.	4a	.
.	.	.	4b-y	.
.	.	.	[2cc	.
=72	=72	=72	=72	=72
0r	0r	1r	2cc]	1dd
.	.	.	2b-y	.
.	.	2.F	2.a	[1cc
.	.	4G	4g	.
=73	=73	=73	=73	=73
0r	0r	4A	2f	1cc]
.	.	4B-y	.	.
.	.	1c	2e	.
.	.	.	1d	1f
.	.	2B-y	.	.
=74	=74	=74	=74	=74
0r	0r	2.e-i	2.c	0g
.	.	4d	4d	.
.	.	2c	4e	.
.	.	.	4f	.
.	.	2B-y	[2g	.
=75	=75	=75	=75	=75
0r	0r	1A	2g]	1a
.	.	.	2f	.
.	.	2.G	[1g	[1b-y
.	.	4A	.	.
=76	=76	=76	=76	=76
0r	0r	4B-y	2g]	1b-]
.	.	4c	.	.
.	.	1d	1f	.
.	.	.	.	1a
.	.	2c	2e	.
=77	=77	=77	=77	=77
0r	0r	2B-y	2d	1g
.	.	1c	2.e	.
.	.	.	.	[1a
.	.	.	4c	.
.	.	2d	[2f	.
=78	=78	=78	=78	=78
0r	0r	1c	2f]	0a]
.	.	.	2e	.
.	.	1F	1f	.
=79	=79	=79	=79	=79
0C	2r	2G	1e	0r
.	2C	1G	.	.
.	2.E	.	1c	.
.	.	2A	.	.
.	4D	.	.	.
=80	=80	=80	=80	=80
1BB-y	4E	2.B-y	1d	0r
.	4F	.	.	.
.	2.G	.	.	.
.	.	4c	.	.
1GG	.	2d	1B-y	.
.	4F	.	.	.
.	2D	[2B-y	.	.
=81	=81	=81	=81	=81
1AA	2F	4B-]	1c	0r
.	.	4A	.	.
.	1E	1A	.	.
1BB-y	.	.	1d	.
.	2D	2G	.	.
=82	=82	=82	=82	=82
[0AA	0E	1A	[0c	1.cc
.	.	1r	.	.
.	.	.	.	2b-y
=83	=83	=83	=83	=83
0AA]	1E	1r	0c]	2a
.	.	.	.	4g
.	.	.	.	4f
.	[1A	[1c	.	1e
=84	=84	=84	=84	=84
0FF	2A]	1c]	0c	1.a
.	2G	.	.	.
.	[1F	1A	.	.
.	.	.	.	2g
=85	=85	=85	=85	=85
0BB-y	2F]	1.B-y	0d	2.f
.	2D	.	.	.
.	.	.	.	4e
.	1F	.	.	1d
.	.	2A	.	.
=86	=86	=86	=86	=86
1C	1E	1G	1c	2r
.	.	.	.	2e
1D	1D	1F	2A	2f
.	.	.	[2d	[2a
=87	=87	=87	=87	=87
0E	1r	0G	2d]	4a]
.	.	.	.	4g
.	.	.	4c	1g
.	.	.	4B-y	.
.	1C	.	1c	.
.	.	.	.	4f
.	.	.	.	4e
=88	=88	=88	=88	=88
0D	1F	0A	1d	2.f
.	.	.	.	4g
.	1F	.	2.f	2a
.	.	.	.	[2dd
.	.	.	4e	.
=89	=89	=89	=89	=89
1GG	1.G	1.B-y	2.d	4dd]
.	.	.	.	4cc
.	.	.	.	4b-y
.	.	.	4c	4a
1GG	.	.	1d	1b-y
.	2F	2A	.	.
=90	=90	=90	=90	=90
0C	2.E	2.G	1c	1.cc
.	4D	4F	.	.
.	1E	1G	2r	.
.	.	.	2G	2b-y
=91	=91	=91	=91	=91
1r	1.c	0F	2.A	1.a
.	.	.	4B-y	.
[1F	.	.	[1c	.
.	2B-y	.	.	2g
=92	=92	=92	=92	=92
1F]	2.A	1r	2c]	1f
.	.	.	2d	.
.	4G	.	.	.
1E	2G	[1G	2.e	[1g
.	2F	.	.	.
.	.	.	4f	.
=93	=93	=93	=93	=93
1C	1E	1G]	2.g	2g]
.	.	.	.	2e
.	.	.	4f	.
[1D	1A	1F	2.d	2.f
.	.	.	4e	4g
=94	=94	=94	=94	=94
1D]	1F	1D	1f	0a
1C	1E	1E	2r	.
.	.	.	2c	.
=95	=95	=95	=95	=95
0BB-y	1D	[0Fl	2d	0b-y
.	.	.	2B-y	.
.	1BB-y	.	1d	.
=	=	=	=	=
00FF	00C	00F]	00c	00a
=||	=||	=||	=||	=||
*M2/1	*M2/1	*M2/1	*M2/1	*M2/1
*met(C|)	*met(C|)	*met(C|)	*met(C|)	*met(C|)
!!section: Secunda pars: Tu civitas regis iusticie
!!!OMD: Secunda pars: Tu civitas regis iusticie
0r	1.C	0r	0r	0r
.	2D	.	.	.
=96	=96	=96	=96	=96
0C	2.E	0r	0r	0r
.	4F	.	.	.
.	2G	.	.	.
.	[2A	.	.	.
=97	=97	=97	=97	=97
1D	4A]	0r	0r	0r
.	4G	.	.	.
.	1F	.	.	.
1BB-y	.	.	.	.
.	4E	.	.	.
.	4D	.	.	.
=98	=98	=98	=98	=98
0C	2.E	0r	0r	0r
.	4F	.	.	.
.	2G	.	.	.
.	[2A	.	.	.
=99	=99	=99	=99	=99
1FF	4A]	0r	0r	0r
.	4G	.	.	.
.	1c	.	.	.
1GG	.	.	.	.
.	2B-y	.	.	.
=100	=100	=100	=100	=100
1.AA	2A	0r	0r	0r
.	4G	.	.	.
.	4F	.	.	.
.	2E	.	.	.
[2BB-y	[2G	.	.	.
=101	=101	=101	=101	=101
2BB-]	4G]	0r	0r	0r
.	4F	.	.	.
2AA	1F	.	.	.
1GG	.	.	.	.
.	2E	.	.	.
=102	=102	=102	=102	=102
0FF	0F	0r	0r	1.c
.	.	.	.	2d
=103	=103	=103	=103	=103
0r	0r	0c	1r	2.e
.	.	.	.	4f
.	.	.	1e	2g
.	.	.	.	[2a
=104	=104	=104	=104	=104
0r	0r	1d	1f	4a]
.	.	.	.	4g
.	.	.	.	1f
.	.	1B-y	1d	.
.	.	.	.	4e
.	.	.	.	4d
=105	=105	=105	=105	=105
0r	0r	0c	1r	2.e
.	.	.	.	4f
.	.	.	1e	2g
.	.	.	.	2a
=106	=106	=106	=106	=106
0r	0r	1F	1f	4a
.	.	.	.	4f
.	.	.	.	1cc
.	.	1G	1d	.
.	.	.	.	2b-y
=107	=107	=107	=107	=107
0r	0r	1.A	1.c	2a
.	.	.	.	4g
.	.	.	.	4f
.	.	.	.	2e
.	.	[2B-y	[2d	[2g
=108	=108	=108	=108	=108
0r	0r	2B-]	2d]	2g]
.	.	2A	2c	2f
.	.	1G	2e	2g
.	.	.	[2d	[2b-y
=109	=109	=109	=109	=109
0r	0r	0F	2d]	2b-]
.	.	.	4c	4a
.	.	.	4B-y	4g
.	.	.	[1c	[1a
=110	=110	=110	=110	=110
0F	1r	1r	1c]	1a]
.	1A	1c	1f	1cc
=111	=111	=111	=111	=111
1BB-y	1B-y	1d	1f	1b-y
1BB-y	1d	1B-y	1f	1b-y
=112	=112	=112	=112	=112
1.F	1c	0c	2.f	1a
.	.	.	4g	.
.	2r	.	2a	2f
2E	2C	.	2g	[2cc
=113	=113	=113	=113	=113
1D	1D	1F	1f	2cc]
.	.	.	.	2b-y
1C	1E	1G	1e	1cc
=114	=114	=114	=114	=114
1.FF	2.F	1.A	2c	4cc
.	.	.	.	4b-y
.	.	.	2.f	4a
.	4E	.	.	4g
.	2C	.	.	2a
.	.	.	4e	.
[2GG	[2G	[2B-y	4d	[2g
.	.	.	4c	.
=115	=115	=115	=115	=115
2GG]	2G]	2B-]	2d	2g]
2AA	2C	2A	2c	2.f
2BB-y	2D	1G	2B-y	.
.	.	.	.	4e
2C	2E	.	4A	4e
.	.	.	4G	4d
=116	=116	=116	=116	=116
[0FF	0C	[0F	[0A	[0f
=117	=117	=117	=117	=117
0FF]	2.F	0F]	0A]	0f]
.	4G	.	.	.
.	4A	.	.	.
.	4B-y	.	.	.
.	[2c	.	.	.
=118	=118	=118	=118	=118
0r	2c]	0r	2r	0r
.	2A	.	2c	.
.	2B-y	.	2d	.
.	2c	.	2e	.
=119	=119	=119	=119	=119
0r	2F	0r	1.f	0r
.	2B-y	.	.	.
.	2A	.	.	.
.	[2G	.	2e	.
=120	=120	=120	=120	=120
0r	4G]	0r	1d	2r
.	4F	.	.	.
.	2D	.	.	2f
.	2E	.	1c	2g
.	2F	.	.	2a
=121	=121	=121	=121	=121
0r	2.G	0r	2r	1.b-y
.	.	.	1g	.
.	4F	.	.	.
.	4E	.	.	.
.	4D	.	.	.
.	2F	.	2f	2a
=122	=122	=122	=122	=122
0r	1C	0r	2e	1g
.	.	.	4d	.
.	.	.	4c	.
.	1r	.	2d	1f
.	.	.	2f	.
=123	=123	=123	=123	=123
0r	0r	2.C	2.e	2r
.	.	.	.	1g
.	.	4D	4d	.
.	.	2E	2c	.
.	.	2F	[2d	2f
=124	=124	=124	=124	=124
0r	0r	2G	4d]	2e
.	.	.	4c	.
.	.	2A	2c	4d
.	.	.	.	4c
.	.	[1B-y	2.f	2.d
.	.	.	4e	4e
=125	=125	=125	=125	=125
0r	0r	2B-]	2d	[0f
.	.	2A	2c	.
.	.	1B-y	2.d	.
.	.	.	4e	.
=126	=126	=126	=126	=126
0r	1r	0F	4f	0f]
.	.	.	4g	.
.	.	.	2.a	.
.	2r	.	.	.
.	.	.	4b-y	.
.	2F	.	2cc	.
=127	=127	=127	=127	=127
2r	2G	0r	2b-y	0r
2C	2A	.	1a	.
2D	1B-y	.	.	.
2E	.	.	2g	.
=128	=128	=128	=128	=128
1.F	1A	1c	1a	2r
.	.	.	.	2c
.	2r	2F	1r	2d
2E	[2G	[2c	.	2e
=129	=129	=129	=129	=129
1D	2G]	2c]	0r	1f
.	2F	2B-y	.	.
[1C	2.G	2c	.	1e
.	.	4c	.	.
.	4F	4B-y	.	.
=130	=130	=130	=130	=130
2C]	2E	2A	0r	0r
2BB-y	1D	2.G	.	.
1AA	.	.	.	.
.	.	4F	.	.
.	2C	2F	.	.
=131	=131	=131	=131	=131
1GG	2D	1B-y	1r	0r
.	2E	.	.	.
1r	1F	1A	1c	.
=132	=132	=132	=132	=132
0r	0r	0r	2.f	1cc
.	.	.	4e	.
.	.	.	2f	1dd
.	.	.	[2g	.
=133	=133	=133	=133	=133
0r	1r	1r	4g]	1b-y
.	.	.	4f	.
.	.	.	4e	.
.	.	.	4d	.
.	1F	2r	1c	1cc
.	.	[2f	.	.
=134	=134	=134	=134	=134
0r	2.B-y	2f]	0r	1f
.	.	1d	.	.
.	4A	.	.	.
.	2B-y	.	.	[1g
.	[2c	[2e	.	.
=135	=135	=135	=135	=135
0r	4c]	2e]	1c	1g]
.	4B-y	.	.	.
.	4A	2c	.	.
.	4G	.	.	.
.	1F	1c	2.f	2a
.	.	.	.	[2cc
.	.	.	4e	.
=136	=136	=136	=136	=136
0r	0r	0r	2f	2cc]
.	.	.	2.g	2.b-y
.	.	.	4f	4a
.	.	.	4e	4g
.	.	.	4d	4f
=137	=137	=137	=137	=137
0r	1C	1r	1e	2g
.	.	.	.	1cc
.	2.F	1c	1f	.
.	.	.	.	[2a
.	4E	.	.	.
=138	=138	=138	=138	=138
0r	2F	1d	0r	2a]
.	2.G	.	.	1b-y
.	.	1B-y	.	.
.	4F	.	.	.
.	4E	.	.	2g
.	4D	.	.	.
=139	=139	=139	=139	=139
1FF	1C	1c	2r	1a
.	.	.	1f	.
2.BB-y	1r	1F	.	1r
.	.	.	[2d	.
4BB-y	.	.	.	.
=140	=140	=140	=140	=140
2BB-y	1r	1G	2d]	1r
2.C	.	.	1e	.
.	1C	[1A	.	2r
4BB-y	.	.	.	.
4AA	.	.	2c	[2cc
4GG	.	.	.	.
=141	=141	=141	=141	=141
1FF	2.F	2A]	1c	2cc]
.	.	1c	.	1a
.	4E	.	.	.
1r	2F	.	1r	.
.	[2G	[2B-y	.	2b-y
=142	=142	=142	=142	=142
0r	4G]	4B-]	0r	2g
.	4F	4A	.	.
.	4E	4G	.	1b-y
.	4D	4F	.	.
.	1E	1G	.	.
.	.	.	.	4a
.	.	.	.	4g
=143	=143	=143	=143	=143
0r	1F	0F	0r	0a
.	1r	.	.	.
=144	=144	=144	=144	=144
3%2C	3%2G	3%2c	3%2e	3%2g
3%2C	3%2G	3%2c	3%2e	3%2g
3%2C	3%2G	3%2c	3%2e	3%2g
=145	=145	=145	=145	=145
3%4FF	3%4F	3%4c	3%4f	3%4a
3%2FF	3%2A	3%2c	3%2f	3%2a
=146	=146	=146	=146	=146
3%2GG	3%2G	3%2B-y	3%2d	3%2b-y
3%4GG	3%4G	3%4B-y	3%4d	3%4b-y
=147	=147	=147	=147	=147
0C	0G	[0c	[0e	0g
=148	=148	=148	=148	=148
1r	2r	0c]	0e]	0r
.	2.c	.	.	.
1C	.	.	.	.
.	4B-y	.	.	.
.	[2A	.	.	.
=149	=149	=149	=149	=149
1D	2A]	0r	0r	0r
.	4G	.	.	.
.	4F	.	.	.
1E	4G	.	.	.
.	4A	.	.	.
.	4B-y	.	.	.
.	4c	.	.	.
=150	=150	=150	=150	=150
1.F	2A	0r	0r	0r
.	4F	.	.	.
.	4G	.	.	.
.	4A	.	.	.
.	4B-y	.	.	.
2E	[2c	.	.	.
=151	=151	=151	=151	=151
1D	2c]	0r	0r	0r
.	2B-y	.	.	.
1C	2.c	.	.	.
.	4B-y	.	.	.
=152	=152	=152	=152	=152
2.D	4A	0r	0r	0r
.	4G	.	.	.
.	4F	.	.	.
4C	4E	.	.	.
2BB-y	2D	.	.	.
[2AA	[2F	.	.	.
=153	=153	=153	=153	=153
4AA]	4F]	0r	0r	0r
4GG	4G	.	.	.
1C	2E	.	.	.
.	2D	.	.	.
2BB-y	[2G	.	.	.
=154	=154	=154	=154	=154
1C	4G]	0r	0r	0r
.	4F	.	.	.
.	4E	.	.	.
.	4D	.	.	.
1r	1C	.	.	.
=155	=155	=155	=155	=155
3%2C	3%2G	3%2c	3%2e	3%2g
3%2C	3%2G	3%2c	3%2e	3%2g
3%2C	3%2G	3%2c	3%2e	3%2g
=156	=156	=156	=156	=156
3%4FF	3%4F	3%4c	3%4f	3%4a
3%2FF	3%2A	3%2c	3%2f	3%2a
=157	=157	=157	=157	=157
3%2GG	3%2G	3%2B-y	3%2d	3%2b-y
3%4GG	3%4G	3%4B-y	3%4d	3%4b-y
=158	=158	=158	=158	=158
[0C	[0G	[0c	1e	0g
.	.	.	2r	.
.	.	.	[2e	.
=159	=159	=159	=159	=159
0C]	0G]	0c]	4e]	1r
.	.	.	4f	.
.	.	.	1g	.
.	.	.	.	1g
.	.	.	4f	.
.	.	.	4e	.
=160	=160	=160	=160	=160
0r	0r	1r	4f	1a
.	.	.	4e	.
.	.	.	4d	.
.	.	.	4c	.
.	.	1G	1d	1b-y
=161	=161	=161	=161	=161
0r	0r	2.A	1c	1.cc
.	.	4B-y	.	.
.	.	2c	1r	.
.	.	[2d	.	2b-y
=162	=162	=162	=162	=162
0r	0r	4d]	0r	1a
.	.	4c	.	.
.	.	2A	.	.
.	.	2B-y	.	1g
.	.	2c	.	.
=163	=163	=163	=163	=163
0r	0r	2F	0r	2.a
.	.	2.A	.	.
.	.	.	.	4g
.	.	.	.	2f
.	.	4B-y	.	.
.	.	4c	.	[2e
.	.	4d	.	.
=164	=164	=164	=164	=164
0r	0r	2c	0r	4e]
.	.	.	.	4d
.	.	2B-y	.	1g
.	.	1A	.	.
.	.	.	.	2f#i
=165	=165	=165	=165	=165
0r	0r	1G	0r	1g
.	.	1r	.	1r
=166	=166	=166	=166	=166
3%2C	3%2G	3%2c	3%2e	3%2g
3%2C	3%2G	3%2c	3%2e	3%2g
3%2C	3%2G	3%2c	3%2e	3%2g
=167	=167	=167	=167	=167
3%4FF	3%4F	3%4c	3%4f	3%4a
3%2FF	3%2F	3%2c	3%2f	3%2a
=168	=168	=168	=168	=168
3%2GG	3%2G	3%2B-y	3%2d	3%2b-y
3%4GG	3%4G	3%4B-y	3%4d	3%4b-y
=169	=169	=169	=169	=169
[0C	0G	[0c	0e	[0g
=170	=170	=170	=170	=170
0C]	1r	0c]	2r	0g]
.	.	.	2.g	.
.	1G	.	.	.
.	.	.	4f	.
.	.	.	[2e	.
=171	=171	=171	=171	=171
0r	1A	0r	2e]	0r
.	.	.	4d	.
.	.	.	4c	.
.	1B-y	.	4d	.
.	.	.	4e	.
.	.	.	4f	.
.	.	.	4g	.
=172	=172	=172	=172	=172
1r	1.c	0r	2e	0r
.	.	.	4c	.
.	.	.	4d	.
1C	.	.	4e	.
.	.	.	4f	.
.	2B-y	.	[2g	.
=173	=173	=173	=173	=173
1D	1A	0r	2g]	0r
.	.	.	2f#i	.
1E	1G	.	1g	.
=174	=174	=174	=174	=174
2.F	2.A	0r	1r	0r
4E	4G	.	.	.
2D	2F	.	2r	.
[2C	[2E	.	2G	.
=175	=175	=175	=175	=175
2C]	4E]	1r	2A	0r
.	4D	.	.	.
2BB-y	1G	.	2B-y	.
1AA	.	1C	2c	.
.	2F	.	2A	.
=176	=176	=176	=176	=176
0GG	2E	1.G	2.B-y	2r
.	2D	.	.	2G
.	.	.	4c	.
.	1G	.	2d	2.B-y
.	.	4F	2e	.
.	.	4E	.	4c
=177	=177	=177	=177	=177
1r	0A	2D	1f	1d
.	.	2E	.	.
1FF	.	1F	1f	2.c
.	.	.	.	4d
=178	=178	=178	=178	=178
1.C	0G	1G	0e	2e
.	.	.	.	2f
.	.	1C	.	2g
4BB-y	.	.	.	2a
4AA	.	.	.	.
=179	=179	=179	=179	=179
2GG	1.G	1D	1r	2.b-y
2AA	.	.	.	.
.	.	.	.	4cc
1BB-y	.	1D	1d	1dd
.	2F	.	.	.
=180	=180	=180	=180	=180
1C	2E	1C	1e	1g
.	2D	.	.	.
1FF	[1C	1r	[1f	1a
=181	=181	=181	=181	=181
1.C	1C]	0c	2f]	1g
.	.	.	4e	.
.	.	.	4d	.
.	1G	.	[1e	[1cc
2BB-y	.	.	.	.
=182	=182	=182	=182	=182
2AA	1.A	1.c	1e]	2cc]
2GG	.	.	.	2b-y
[1FF	.	.	2.f	[1a
.	2G	2B-y	.	.
.	.	.	4e	.
=183	=183	=183	=183	=183
1FF]	1F	1A	2c	2a]
.	.	.	2d	2f
1C	1E	1G	1e	1g
=184	=184	=184	=184	=184
1.D	1r	1F	1.f	1r
.	[1D	2D	.	1a
2C	.	2E	2e	.
=185	=185	=185	=185	=185
1BB-y	1D]	2F	1d	1b-y
.	.	2G	.	.
1AA	1E	[1A	1c	[1cc
=186	=186	=186	=186	=186
1FF	2.F	2A]	1.A	2cc]
.	.	2F	.	2b-y
.	4E	.	.	.
1FF	2C	1A	.	2a
.	2D	.	2B-y	4g
.	.	.	.	4f
=	=	=	=	=
00C	00E	00G	00c	00e
=	=	=	=	=
00FFl	00Cl	00Fl	00Al	00fl
==	==	==	==	==
*-	*-	*-	*-	*-
!!!system-decoration: [*]
!!!RDF**kern: i = editorial accidental
!!!RDF**kern: l = terminal long
!!!ENC: Benjamin Ory
!!!END: 2022/3/30
!!!EED: Benjamin Ory
!!!EEV: 2022/03/30
!!!YEC: Copyright 2022 Benjamin Ory, All Rights Reserved
!!!ONB: Translated from MusicXML on 2022/03/30
